web/workspace/public/assets/icons/film.svg

<svg height="30" viewBox="0 0 30 30" width="30" xmlns="http://www.w3.org/2000/svg"><path d="m2 2v26h26v-26zm24 4h-2v-2h2zm-4 8h-14v-10h14zm-16-4h-2v-2h2zm0 2v2h-2v-2zm0 4v2h-2v-2zm0 4v2h-2v-2zm2-4h14v10h-14zm16 4h2v2h-2zm0-2v-2h2v2zm0-4v-2h2v2zm0-4v-2h2v2zm-18-6v2h-2v-2zm-2 20h2v2h-2zm20 2v-2h2v2z"/></svg>

<svg xmlns="http://www.w3.org/2000/svg" width="30" height="30" viewBox="0 0 30 30"><path d="M2 2v26h26V2H2zm24 4h-2V4h2v2zm-4 8H8V4h14v10zM6 10H4V8h2v2zm0 2v2H4v-2h2zm0 4v2H4v-2h2zm0 4v2H4v-2h2zm2-4h14v10H8V16zm16 4h2v2h-2v-2zm0-2v-2h2v2h-2zm0-4v-2h2v2h-2zm0-4V8h2v2h-2zM6 4v2H4V4h2zM4 24h2v2H4v-2zm20 2v-2h2v2h-2z"/></svg>
